X:10822
T:Minuet 2
R:Minuet
O:England
M:3/4
A:Lancashire
B:Winder
K:Am
A2 E2 A2 |  B2 E2 B2 | c2dc BA | BA GF E2 |\
c2 E2 c2 | d2 G2 g2 | e2 fe de | c6 :|*
|:e2 fe dc | d2 c2 B2 | c2 dc BA | ^GA B2 E2 |\
A2 E2 A2 | B2 e2 d2 | c2 BA B^G | A6 :|**
